icons/svg/shopping/hifi.svg

<?xml version="1.0" encoding="UTF-8" standalone="no"?>
<!-- Created with Inkscape (http://www.inkscape.org/) -->

<svg
   xmlns:dc="http://purl.org/dc/elements/1.1/"
   xmlns:cc="http://creativecommons.org/ns#"
   xmlns:rdf="http://www.w3.org/1999/02/22-rdf-syntax-ns#"
   xmlns:svg="http://www.w3.org/2000/svg"
   xmlns="http://www.w3.org/2000/svg"
   xmlns:sodipodi="http://sodipodi.sourceforge.net/DTD/sodipodi-0.dtd"
   xmlns:inkscape="http://www.inkscape.org/namespaces/inkscape"
   version="1.0"
   width="580"
   height="580"
   id="svg2"
   sodipodi:version="0.32"
   inkscape:version="0.48.4 r9939"
   sodipodi:docname="hifi.svg"
   inkscape:output_extension="org.inkscape.output.svg.inkscape">
  <metadata
     id="metadata2975">
    <rdf:RDF>
      <cc:Work
         rdf:about="">
        <dc:format>image/svg+xml</dc:format>
        <dc:type
           rdf:resource="http://purl.org/dc/dcmitype/StillImage" />
        <cc:license
           rdf:resource="http://web.resource.org/cc/PublicDomain" />
        <dc:language>en</dc:language>
        <dc:title />
      </cc:Work>
    </rdf:RDF>
  </metadata>
  <sodipodi:namedview
     inkscape:window-height="739"
     inkscape:window-width="1324"
     inkscape:pageshadow="2"
     inkscape:pageopacity="0.0"
     guidetolerance="10.0"
     gridtolerance="10.0"
     objecttolerance="10.0"
     borderopacity="1.0"
     bordercolor="#666666"
     pagecolor="#ffffff"
     id="base"
     inkscape:zoom="0.32586207"
     inkscape:cx="192.06449"
     inkscape:cy="260.98088"
     inkscape:window-x="42"
     inkscape:window-y="1024"
     inkscape:current-layer="svg2"
     showgrid="false"
     inkscape:window-maximized="1"
     showguides="true"
     inkscape:guide-bbox="true" />
  <defs
     id="defs4">
    <inkscape:perspective
       sodipodi:type="inkscape:persp3d"
       inkscape:vp_x="0 : 290 : 1"
       inkscape:vp_y="6.1230318e-14 : 1000 : 0"
       inkscape:vp_z="580 : 290 : 1"
       inkscape:persp3d-origin="290 : 193.33333 : 1"
       id="perspective2441" />
    <inkscape:perspective
       id="perspective3452"
       inkscape:persp3d-origin="30 : 20 : 1"
       inkscape:vp_z="60 : 30 : 1"
       inkscape:vp_y="0 : 1000 : 0"
       inkscape:vp_x="0 : 30 : 1"
       sodipodi:type="inkscape:persp3d" />
    <symbol
       viewBox="244.5 110 489 219.9"
       id="symbol-university">
      <path
         id="path4460"
         d="M79,43l57,119c0,0,21-96,104-96s124,106,124,106l43-133l82-17L0,17L79,43z" />
      <path
         id="path4462"
         d="M94,176l-21,39"
         stroke-width="20"
         stroke="#000000"
         fill="none" />
      <path
         id="path4464"
         d="M300,19c0,10.5-22.6,19-50.5,19S199,29.5,199,19s22.6-19,50.5-19S300,8.5,300,19z" />
      <path
         id="path4466"
         d="M112,216l-16-38L64,88c0,0-9-8-4-35s16-24,16-24"
         stroke-width="20"
         stroke="#000000"
         ill="none" />
    </symbol>
    <inkscape:perspective
       id="perspective4471"
       inkscape:persp3d-origin="372.04724 : 350.78739 : 1"
       inkscape:vp_z="744.09448 : 526.18109 : 1"
       inkscape:vp_y="0 : 1000 : 0"
       inkscape:vp_x="0 : 526.18109 : 1"
       sodipodi:type="inkscape:persp3d" />
    <inkscape:perspective
       id="perspective4668"
       inkscape:persp3d-origin="6 : 4 : 1"
       inkscape:vp_z="12 : 6 : 1"
       inkscape:vp_y="0 : 1000 : 0"
       inkscape:vp_x="0 : 6 : 1"
       sodipodi:type="inkscape:persp3d" />
    <inkscape:perspective
       id="perspective3826"
       inkscape:persp3d-origin="0.5 : 0.33333333 : 1"
       inkscape:vp_z="1 : 0.5 : 1"
       inkscape:vp_y="0 : 1000 : 0"
       inkscape:vp_x="0 : 0.5 : 1"
       sodipodi:type="inkscape:persp3d" />
    <inkscape:perspective
       id="perspective3855"
       inkscape:persp3d-origin="0.5 : 0.33333333 : 1"
       inkscape:vp_z="1 : 0.5 : 1"
       inkscape:vp_y="0 : 1000 : 0"
       inkscape:vp_x="0 : 0.5 : 1"
       sodipodi:type="inkscape:persp3d" />
    <inkscape:perspective
       id="perspective3909"
       inkscape:persp3d-origin="0.5 : 0.33333333 : 1"
       inkscape:vp_z="1 : 0.5 : 1"
       inkscape:vp_y="0 : 1000 : 0"
       inkscape:vp_x="0 : 0.5 : 1"
       sodipodi:type="inkscape:persp3d" />
    <inkscape:perspective
       id="perspective3950"
       inkscape:persp3d-origin="0.5 : 0.33333333 : 1"
       inkscape:vp_z="1 : 0.5 : 1"
       inkscape:vp_y="0 : 1000 : 0"
       inkscape:vp_x="0 : 0.5 : 1"
       sodipodi:type="inkscape:persp3d" />
    <inkscape:perspective
       id="perspective3972"
       inkscape:persp3d-origin="0.5 : 0.33333333 : 1"
       inkscape:vp_z="1 : 0.5 : 1"
       inkscape:vp_y="0 : 1000 : 0"
       inkscape:vp_x="0 : 0.5 : 1"
       sodipodi:type="inkscape:persp3d" />
    <inkscape:perspective
       id="perspective3994"
       inkscape:persp3d-origin="0.5 : 0.33333333 : 1"
       inkscape:vp_z="1 : 0.5 : 1"
       inkscape:vp_y="0 : 1000 : 0"
       inkscape:vp_x="0 : 0.5 : 1"
       sodipodi:type="inkscape:persp3d" />
    <inkscape:perspective
       id="perspective4016"
       inkscape:persp3d-origin="0.5 : 0.33333333 : 1"
       inkscape:vp_z="1 : 0.5 : 1"
       inkscape:vp_y="0 : 1000 : 0"
       inkscape:vp_x="0 : 0.5 : 1"
       sodipodi:type="inkscape:persp3d" />
    <inkscape:perspective
       id="perspective4837"
       inkscape:persp3d-origin="0.5 : 0.33333333 : 1"
       inkscape:vp_z="1 : 0.5 : 1"
       inkscape:vp_y="0 : 1000 : 0"
       inkscape:vp_x="0 : 0.5 : 1"
       sodipodi:type="inkscape:persp3d" />
    <inkscape:perspective
       id="perspective4971"
       inkscape:persp3d-origin="0.5 : 0.33333333 : 1"
       inkscape:vp_z="1 : 0.5 : 1"
       inkscape:vp_y="0 : 1000 : 0"
       inkscape:vp_x="0 : 0.5 : 1"
       sodipodi:type="inkscape:persp3d" />
  </defs>
  <g
     id="g1327">
    <path
       d="M 66.275,1.768 C 24.94,1.768 1.704,23.139 1.704,66.804 L 1.704,516.927 C 1.704,557.771 22.599,579.156 63.896,579.156 L 515.92,579.156 C 557.227,579.156 578.149,558.841 578.149,516.927 L 578.149,66.804 C 578.149,24.203 557.227,1.768 514.628,1.768 C 514.624,1.768 66.133,1.625 66.275,1.768 z "
       style="fill:#111;stroke:#eee;stroke-width:3.40799999"
       id="path1329" />
  </g>
  <path
     style="fill:#ffffff;fill-opacity:1;fill-rule:evenodd;stroke:#ffffff;stroke-width:18.03055191;stroke-linecap:round;stroke-linejoin:round;stroke-miterlimit:4;stroke-dasharray:none;stroke-opacity:1"
     d="M 27.242741,-248.97792 L 39.548641,-228.79084 L 152.86371,-184.08575 L 151.87803,-241.06807 L 40.287901,-263.53323 L 27.242741,-248.97792 z"
     id="path3289"
     sodipodi:nodetypes="cccccc" />
  <g
     id="g3338"
     transform="matrix(1.3973279,-0.2437849,0.2437849,1.3973279,-185.07402,-56.183307)" />
  <path
     inkscape:connector-curvature="0"
     d="m 86.892856,56.895558 c -13.65768,-0.267975 -17.789589,1.701064 -23.22876,7.147336 -14.504308,14.523346 0,16.672304 0,225.736086 0,209.06383 -13.732396,212.34683 1.191217,226.92735 14.466128,14.12308 16.076692,0.59464 225.140467,0.59464 209.06372,0 211.80832,13.33212 226.33167,-1.19121 14.52332,-14.54239 0,-18.46867 0,-226.33175 0,-207.863028 14.00396,-211.789281 -0.59467,-226.331685 -14.50429,-14.466173 -17.26315,-0.595608 -225.73609,-0.595608 -130.29556,0 -180.33994,-5.509376 -203.102864,-5.956101 z m 22.037554,22.03756 c 16.60084,0 29.78049,13.179674 29.78049,29.780472 0,16.60084 -13.17965,29.78051 -29.78049,29.78051 -16.600831,0 -29.780504,-13.17967 -29.780504,-29.78051 0,-16.600798 13.179673,-29.780472 29.780504,-29.780472 z m 362.13068,0 c 16.60083,0 29.7805,13.179674 29.7805,29.780472 0,16.60084 -13.17967,29.78051 -29.7805,29.78051 -16.60085,0 -29.78049,-13.17967 -29.78049,-29.78051 0,-16.600798 13.17964,-29.780472 29.78049,-29.780472 z m -181.06531,1.191217 c 115.80555,0 209.65457,93.849035 209.65457,209.654645 0,115.80556 -93.84902,209.65467 -209.65457,209.65467 -115.80561,0 -209.654616,-93.84911 -209.654616,-209.65467 0,-115.80561 93.849006,-209.654645 209.654616,-209.654645 z m 0,41.692665 c -92.61018,0 -167.96197,75.33272 -167.96197,167.96198 0,92.62919 75.35179,167.9619 167.96197,167.9619 92.61012,0 167.96191,-75.33271 167.96191,-167.9619 0,-92.62926 -75.35179,-167.96198 -167.96191,-167.96198 z m 0,110.7834 c 31.56252,0 57.1785,25.61602 57.1785,57.17858 0,31.56254 -25.61598,57.17851 -57.1785,57.17851 -31.56258,0 -57.17855,-25.61597 -57.17855,-57.17851 0,-31.56256 25.61597,-57.17858 57.17855,-57.17858 z m -132.82099,57.17858 35.141,0 c 0,53.74782 43.87498,97.08436 97.67999,97.08436 53.80498,0 97.67996,-43.33654 97.67996,-97.08436 l 35.14096,0 c 0.0198,73.30287 -59.44184,132.82094 -132.82092,132.82094 -73.37912,0 -132.82099,-59.51807 -132.82099,-132.82094 z m -48.24438,151.28484 c 16.60084,0 29.78049,13.17964 29.78049,29.78056 0,16.60085 -13.17965,29.78049 -29.78049,29.78049 -16.600831,0 -29.780504,-13.17964 -29.780504,-29.78049 0,-16.60092 13.179673,-29.78056 29.780504,-29.78056 z m 362.13068,0 c 16.60083,0 29.7805,13.17964 29.7805,29.78056 0,16.60085 -13.17967,29.78049 -29.7805,29.78049 -16.60085,0 -29.78049,-13.17964 -29.78049,-29.78049 0,-16.60092 13.17964,-29.78056 29.78049,-29.78056 z"
     id="path4"
     style="fill:#ffffff;fill-opacity:1;stroke:none" />
</svg>

<svg width="580" height="580" viewBox="0 0 580 580" fill="none" xmlns="http://www.w3.org/2000/svg">
<g clip-path="url(#clip0)">
<path d="M66.2751 1.76863C24.9401 1.76863 1.7041 23.1396 1.7041 66.8046V516.928C1.7041 557.772 22.5991 579.157 63.8961 579.157H515.92C557.227 579.157 578.149 558.842 578.149 516.928V66.8046C578.149 24.2036 557.227 1.76863 514.628 1.76863C514.624 1.76863 66.1331 1.62563 66.2751 1.76863Z" fill="#111111" stroke="#EEEEEE" stroke-width="3.408"/>
<path d="M86.8929 56.8962C73.2352 56.6282 69.1033 58.5972 63.6641 64.0435C49.1598 78.5668 63.6641 80.7158 63.6641 289.78C63.6641 498.843 49.9317 502.126 64.8554 516.707C79.3215 530.83 80.932 517.302 289.996 517.302C499.06 517.302 501.804 530.634 516.327 516.11C530.851 501.568 516.327 497.642 516.327 289.779C516.327 81.9156 530.331 77.9893 515.733 63.4469C501.229 48.9807 498.47 62.8513 289.997 62.8513C159.701 62.8513 109.657 57.3419 86.8939 56.8952L86.8929 56.8962ZM108.93 78.9337C125.531 78.9337 138.711 92.1134 138.711 108.714C138.711 125.315 125.531 138.495 108.93 138.495C92.3296 138.495 79.1499 125.315 79.1499 108.714C79.1499 92.1134 92.3296 78.9337 108.93 78.9337ZM471.061 78.9337C487.662 78.9337 500.842 92.1134 500.842 108.714C500.842 125.315 487.662 138.495 471.061 138.495C454.46 138.495 441.281 125.315 441.281 108.714C441.281 92.1134 454.46 78.9337 471.061 78.9337ZM289.996 80.1249C405.801 80.1249 499.65 173.974 499.65 289.78C499.65 405.585 405.801 499.434 289.996 499.434C174.19 499.434 80.3412 405.585 80.3412 289.78C80.3412 173.974 174.19 80.1249 289.996 80.1249ZM289.996 121.818C197.386 121.818 122.034 197.15 122.034 289.78C122.034 382.409 197.386 457.741 289.996 457.741C382.606 457.741 457.958 382.409 457.958 289.78C457.958 197.15 382.606 121.818 289.996 121.818V121.818ZM289.996 232.601C321.558 232.601 347.174 258.217 347.174 289.78C347.174 321.342 321.558 346.958 289.996 346.958C258.433 346.958 232.817 321.342 232.817 289.78C232.817 258.217 258.433 232.601 289.996 232.601V232.601ZM157.175 289.78H192.316C192.316 343.527 236.191 386.864 289.996 386.864C343.801 386.864 387.676 343.527 387.676 289.78H422.817C422.837 363.082 363.375 422.601 289.996 422.601C216.617 422.601 157.175 363.082 157.175 289.78ZM108.93 441.064C125.531 441.064 138.711 454.244 138.711 470.845C138.711 487.446 125.531 500.625 108.93 500.625C92.3296 500.625 79.1499 487.446 79.1499 470.845C79.1499 454.244 92.3296 441.064 108.93 441.064V441.064ZM471.061 441.064C487.662 441.064 500.842 454.244 500.842 470.845C500.842 487.446 487.662 500.625 471.061 500.625C454.46 500.625 441.281 487.446 441.281 470.845C441.281 454.244 454.46 441.064 471.061 441.064Z" fill="white"/>
</g>
<defs>
<clipPath id="clip0">
<path d="M0 0H580V580H0V0Z" fill="white"/>
</clipPath>
</defs>
</svg>
